X: 37693
T: So I Am Off With The Good St. Nicholas Boat
R: jig
M: 6/8
K: Amajor
|:E|"A"Ace e^de|"Adim"fe^d "A"e2c|"Bm"dcd "E7"Bed|"A"c3 c2A|
"A"Ace e^de|"Adim"fe^d "A"e2c|"Bm"dcd "E7"Bec|"A"A3- A2:|
c|"F#m"cfg agf|"Bm"ded "F#m"c2c|"F#m"cfg agf|"C#"g3 "E7"g2g|
"D"agf "A"e2e|"D"fed "A"c2c|"E"Bef "B7"gaf|"E"eee "E7"e2e|
"Bm"f2f fdB|"E"g3 g2c|"Bm"d2d "E7"cdB|"A"e3 "E7"e2G|
"A"Ace e^de|"Adim"fe^d "A"e2c|"Bm"dcd "E7"EFG|"A"A3- A2z|

